packages/core/src/svgs/tokens/mono/RBD.svg

<svg width="24" height="24" viewBox="0 0 24 24" fill="none" xmlns="http://www.w3.org/2000/svg">
<path d="M2 22.0001V17.3335H8.31324L11.3332 22.0001H2ZM2 10.0002V14.0003H10.4198C10.9532 14.0003 11.9999 13.6669 11.9999 12.0003C11.9999 10.3336 10.9465 10.0002 10.4198 10.0002H2Z" fill="white"/>
<path d="M2 2H17.3665C19.4665 2 21.9996 3.12664 21.9996 5.55994V9.04658C21.9996 10.2199 21.3463 11.2533 20.3998 11.9066C21.6531 12.5065 21.9996 13.9264 21.9996 14.6865V18.4398C21.9996 20.8198 18.7998 21.9996 16.8331 21.9996H15.5798L11.9399 16.5397L12.5065 16.4931C14.6398 16.3198 15.4197 13.8132 15.4197 11.9999C15.4197 9.65992 14.1399 6.6666 11.4598 6.6666H2V2ZM2.67333 2.67333V5.99994H11.4665C14.5264 5.99994 16.0998 9.28659 16.0998 12.0064C16.0998 13.9865 15.2731 16.5531 13.1132 17.0865L15.9465 21.3331H16.8398C18.4131 21.3331 21.3331 20.413 21.3331 18.4463V14.6932C21.3331 13.5732 20.6396 12.4932 19.4797 12.3398L19.3997 11.6932C20.4797 11.2865 21.3331 10.2266 21.3331 9.05327V5.56662C21.3331 3.51997 19.0864 2.67999 17.373 2.67999H2.67333V2.67333Z" fill="white"/>
</svg>

<svg xmlns="http://www.w3.org/2000/svg" width="24" height="24" fill="none" viewBox="0 0 24 24">
    <path fill="#fff" d="M2 22v-4.666h6.313L11.333 22zm0-12v4h8.42c.533 0 1.58-.333 1.58-2 0-1.666-1.053-2-1.58-2z"/>
    <path fill="#fff" d="M2 2h15.366C19.467 2 22 3.127 22 5.56v3.487c0 1.173-.654 2.206-1.6 2.86 1.253.6 1.6 2.02 1.6 2.78v3.753c0 2.38-3.2 3.56-5.167 3.56H15.58l-3.64-5.46.567-.047c2.133-.173 2.913-2.68 2.913-4.493 0-2.34-1.28-5.333-3.96-5.333H2zm.673.673V6h8.794c3.06 0 4.633 3.287 4.633 6.006 0 1.98-.827 4.547-2.987 5.08l2.834 4.247h.893c1.573 0 4.493-.92 4.493-2.887v-3.753c0-1.12-.693-2.2-1.853-2.353l-.08-.647c1.08-.406 1.933-1.466 1.933-2.64V5.567c0-2.047-2.247-2.887-3.96-2.887h-14.7z"/>
</svg>
